Adwaita++-Dark/actions/16/mail-reply-all-rtl.svg

<svg height="16" width="16" xmlns="http://www.w3.org/2000/svg">
  <g fill="#e6ddff">
    <path d="m7 1.5v2.5h-2c-3 0-5 2.13-5 5.25 0 3.25 4 4.75 4 4.75s-1.87-2.65-1.44-4c.37-1.13 1.58-2 2.94-2h1.5v2.5l6.5-4.5z"/>
    <path d="m9.5 1.5 6.5 4.5-6.5 4.5v-1.0391l5-3.4609-5-3.4609z"/>
  </g>
</svg>

<svg xmlns="http://www.w3.org/2000/svg" width="16" height="16" version="1.1">
 <path style="fill:#E6DDFF" d="M 7,1.5 V 4 H 5 C 2,4 0,6.13 0,9.25 0,12.5 4,14 4,14 4,14 2.13,11.35 2.56,10 2.93,8.87 4.14,8 5.5,8 H 7 V 10.5 L 13.5,6 Z"/>
 <path style="fill:#E6DDFF" d="M 9.5,1.5 16,6 9.5,10.5 V 9.4609 L 14.5,6 9.5,2.5391 Z"/>
</svg>
